publish-off.svg

<svg fill="currentColor" viewBox="0 0 24 24"><path d="M20.8 22.7 15 16.9V20H9v-6H5l3.6-3.6L1.1 3l1.3-1.3 19.7 19.7zM19 6V4H7.2l2 2zm-1.8 8H19l-7-7-.9.9z"/></svg>

<svg  viewBox="0 0 24 24" fill="currentColor"><path  d="M20.8 22.7L15 16.9V20H9V14H5L8.6 10.4L1.1 3L2.4 1.7L22.1 21.4L20.8 22.7M19 6V4H7.2L9.2 6H19M17.2 14H19L12 7L11.1 7.9L17.2 14Z"/></svg>
